src/images/logo-tmdb.svg

<svg width="66" height="59" viewBox="0 0 66 59" fill="none" xmlns="http://www.w3.org/2000/svg">
<path fill-rule="evenodd" clip-rule="evenodd" d="M59.5715 55.1419C63.4055 55.1419 66 52.5257 66 48.6596V6.48229C66 2.61622 63.4055 0 59.5715 0H6.42852C2.59452 0 0 2.61622 0 6.48229V59L3.29829 55.1445V6.48229C3.30118 4.74027 4.70094 3.3288 6.42852 3.32588H59.5715C61.2991 3.3288 62.6988 4.74027 62.7017 6.48229V48.6596C62.6988 50.4016 61.2991 51.8131 59.5715 51.816H11.3208L8.02252 55.1419L8.00151 55.1154" fill="#01D277"/>
<path fill-rule="evenodd" clip-rule="evenodd" d="M16.1404 20H17.8596V12.7891H20V11H14V12.7891H16.1404V20Z" fill="#01D277"/>
<path fill-rule="evenodd" clip-rule="evenodd" d="M26.2843 20H28V11H26.2843V14.599H23.7157V11H22V20H23.7157V16.3984H26.2843V20Z" fill="#01D277"/>
<path fill-rule="evenodd" clip-rule="evenodd" d="M35 18.1979H31.7401V16.3984H34.5243V14.599H31.7401V12.7995H34.8523V11H30V20H35V18.1979Z" fill="#01D277"/>
<path fill-rule="evenodd" clip-rule="evenodd" d="M18.0063 26.8922L14.5612 23H14V32H15.7716V27.0531L18.0063 29.4333L20.241 27.0531L20.2309 32H22V23H21.4514L18.0063 26.8922Z" fill="#01D277"/>
<path fill-rule="evenodd" clip-rule="evenodd" d="M28.5 23C22.5 23 22.5 32 28.5 32C34.5 32 34.5 23 28.5 23ZM28.5 30.1935C25.0126 30.1935 25.0126 24.7965 28.5 24.7965C31.9874 24.7965 31.9874 30.1935 28.5 30.1935Z" fill="#01D277"/>
<rect x="43" y="23" width="2" height="9" fill="#01D277"/>
<path fill-rule="evenodd" clip-rule="evenodd" d="M48.7385 30.2V28.4H51.524V26.6H48.7385V24.8H51.8522V23H47V32H52V30.2H48.7385Z" fill="#01D277"/>
<path fill-rule="evenodd" clip-rule="evenodd" d="M14 35H16.6163C22.4612 35 22.4612 44 16.6163 44H14V35ZM15.756 42.2H16.6163C20.0296 42.2 20.0296 36.8 16.6163 36.8H15.756V42.2Z" fill="#01D277"/>
<path fill-rule="evenodd" clip-rule="evenodd" d="M28.1016 39.4987C28.647 39.1102 28.8797 38.4058 28.9022 37.7272C28.9398 36.1422 27.979 35 26.4378 35H23V44H26.4378C27.1243 43.9945 27.7805 43.7063 28.2613 43.1989C28.7421 42.6915 29.0078 42.0068 28.9998 41.2961C29.0029 40.5808 28.6674 39.9094 28.1016 39.4987ZM24.7489 36.7948H26.2926C26.7507 36.8307 27.1046 37.2258 27.1046 37.7013C27.1046 38.1768 26.7507 38.5719 26.2926 38.6078H24.7489V36.7948ZM24.7489 42.2H26.2926V42.2026C26.5255 42.2054 26.7496 42.1107 26.914 41.94C27.0784 41.7694 27.1692 41.5371 27.1658 41.2961C27.1686 41.0565 27.0772 40.8259 26.9125 40.6574C26.7479 40.4889 26.5241 40.3969 26.2926 40.4026H24.7489V42.2Z" fill="#01D277"/>
<path fill-rule="evenodd" clip-rule="evenodd" d="M37.5013 27.7578L35.1024 23H33L37.2966 32H37.706L42 23H39.8976L37.5013 27.7578Z" fill="#01D277"/>
</svg>

<svg width="66" height="59" fill="none" xmlns="http://www.w3.org/2000/svg"><path fill-rule="evenodd" clip-rule="evenodd" d="M59.572 55.142c3.834 0 6.428-2.616 6.428-6.482V6.482C66 2.616 63.406 0 59.572 0H6.428C2.595 0 0 2.616 0 6.482V59l3.298-3.855V6.482c.003-1.742 1.403-3.153 3.13-3.156h53.144c1.727.003 3.127 1.414 3.13 3.156V48.66c-.003 1.742-1.403 3.153-3.13 3.156H11.32l-3.298 3.326-.021-.027" fill="#01D277"/><path fill-rule="evenodd" clip-rule="evenodd" d="M16.14 20h1.72v-7.21H20V11h-6v1.79h2.14V20zM26.284 20H28v-9h-1.716v3.599h-2.568V11H22v9h1.716v-3.602h2.568V20zM35 18.198h-3.26v-1.8h2.784V14.6H31.74v-1.8h3.112V11H30v9h5v-1.802zM18.006 26.892L14.561 23H14v9h1.772v-4.947l2.234 2.38 2.235-2.38-.01 4.947H22v-9h-.549l-3.445 3.892zM28.5 23c-6 0-6 9 0 9s6-9 0-9zm0 7.194c-3.487 0-3.487-5.397 0-5.397s3.487 5.396 0 5.396z" fill="#01D277"/><path fill="#01D277" d="M43 23h2v9h-2z"/><path fill-rule="evenodd" clip-rule="evenodd" d="M48.739 30.2v-1.8h2.785v-1.8h-2.785v-1.8h3.113V23H47v9h5v-1.8h-3.261zM14 35h2.616c5.845 0 5.845 9 0 9H14v-9zm1.756 7.2h.86c3.414 0 3.414-5.4 0-5.4h-.86v5.4zM28.102 39.499c.545-.389.778-1.093.8-1.772C28.94 36.142 27.98 35 26.438 35H23v9h3.438a2.54 2.54 0 001.823-.801c.481-.508.747-1.192.739-1.903a2.207 2.207 0 00-.898-1.797zm-3.353-2.704h1.544a.897.897 0 01.812.906c0 .476-.354.87-.812.907h-1.544v-1.813zm0 5.405h1.544v.003a.848.848 0 00.621-.263.91.91 0 00.252-.644.9.9 0 00-.253-.639.838.838 0 00-.62-.254h-1.544V42.2zM37.501 27.758L35.102 23H33l4.297 9h.409L42 23h-2.102L37.5 27.758z" fill="#01D277"/></svg>
